X: 32
T:SCOTTISH DU PERE ROUXEL
M:4/4
L:1/8
Q:1/4=60
K:G
|:G/2A/2B/2A/2G/2A/2B/2A/2 GBdB|A/2G/2F/2G/2AA|1 B/2c/2B/2A/2BG:|2B/2c/2
B/2A/2G2|!
|:BBdc/2B/2 AAdB|A/2G/2F/2G/2AA|1B/2c/2B/2A/2BG:|2B/2c/2B/2A/2G2|
